symbols/web/face_retouching_natural/materialsymbolsoutlined/face_retouching_natural_wght700grad200fill1_40px.svg

<svg xmlns="http://www.w3.org/2000/svg" height="40" width="40"><path d="M20 37.875q-3.708 0-6.958-1.375t-5.709-3.833Q4.875 30.208 3.5 26.958 2.125 23.708 2.125 20T3.5 13.083q1.375-3.208 3.792-5.666 2.416-2.459 5.645-3.875Q16.167 2.125 20 2.083q2.292-.041 4.125.438 1.833.479 3.75 1.354l-6.958 3.083 8.5 3.709L32 16.458q-5.167.667-9.125-1-3.958-1.666-6.75-5-1.25 3.292-3.937 5.771-2.688 2.479-5.646 3.563 0 5.708 3.937 9.687 3.938 3.979 9.521 3.979 5.625 0 9.562-3.916Q33.5 25.625 33.5 20q0-.458-.042-.833-.041-.375-.083-.625l2.833-6.25q.917 1.958 1.313 3.875.396 1.916.396 3.833 0 3.708-1.417 6.979t-3.854 5.709q-2.438 2.437-5.708 3.812-3.271 1.375-6.938 1.375Zm-5-13.833q-.958 0-1.625-.667t-.667-1.625q0-.958.667-1.625T15 19.458q.958 0 1.625.667t.667 1.625q0 .958-.667 1.625T15 24.042Zm10.042 0q-.959 0-1.646-.667-.688-.667-.688-1.625t.688-1.625q.687-.667 1.646-.667.958 0 1.646.667.687.667.687 1.625t-.687 1.625q-.688.667-1.646.667Zm8.083-11.167-1.833-4.167-4.125-1.791 4.125-1.75L33.125 1l1.833 4.167 4.125 1.75-4.125 1.791Z"/></svg>

<svg xmlns="http://www.w3.org/2000/svg" height="40" width="40"><path d="M20 37.875Q16.292 37.875 13.042 36.5Q9.792 35.125 7.333 32.667Q4.875 30.208 3.5 26.958Q2.125 23.708 2.125 20Q2.125 16.292 3.5 13.083Q4.875 9.875 7.292 7.417Q9.708 4.958 12.937 3.542Q16.167 2.125 20 2.083Q22.292 2.042 24.125 2.521Q25.958 3 27.875 3.875L20.917 6.958L29.417 10.667L32 16.458Q26.833 17.125 22.875 15.458Q18.917 13.792 16.125 10.458Q14.875 13.75 12.188 16.229Q9.5 18.708 6.542 19.792Q6.542 25.5 10.479 29.479Q14.417 33.458 20 33.458Q25.625 33.458 29.562 29.542Q33.5 25.625 33.5 20Q33.5 19.542 33.458 19.167Q33.417 18.792 33.375 18.542L36.208 12.292Q37.125 14.25 37.521 16.167Q37.917 18.083 37.917 20Q37.917 23.708 36.5 26.979Q35.083 30.25 32.646 32.688Q30.208 35.125 26.938 36.5Q23.667 37.875 20 37.875ZM15 24.042Q14.042 24.042 13.375 23.375Q12.708 22.708 12.708 21.75Q12.708 20.792 13.375 20.125Q14.042 19.458 15 19.458Q15.958 19.458 16.625 20.125Q17.292 20.792 17.292 21.75Q17.292 22.708 16.625 23.375Q15.958 24.042 15 24.042ZM25.042 24.042Q24.083 24.042 23.396 23.375Q22.708 22.708 22.708 21.75Q22.708 20.792 23.396 20.125Q24.083 19.458 25.042 19.458Q26 19.458 26.688 20.125Q27.375 20.792 27.375 21.75Q27.375 22.708 26.688 23.375Q26 24.042 25.042 24.042ZM33.125 12.875 31.292 8.708 27.167 6.917 31.292 5.167 33.125 1 34.958 5.167 39.083 6.917 34.958 8.708Z"/></svg>
